mml@
ot149v15l8.o5ccc32c32c16ccc32c32c16ccc8<a+4g4>ccc32c32c16ccc32c32c16ccc8o3c+8c+8d+8d+8o5ccc32c32c16ccc32c32c16ccc8<a+4g4>ccc32c32c16ccc32c32c16ccc8c+4d+4ov12l16o4fa+>cfcfga+b+2<c8<c8f8.<f8oro3c8o5c64c+.or64l8o3c>f<fa+.n34or16o3fa+f>gn34<d+.<d+or16o2a+n39a+o4g<d+g+.<gor16o3d+g+d+n56cf.<d+or16o2a+n39a+n56g+>c+.<cor16o2gb+gn48g+n37g+n48a+n39a+4>cfcol16o3fcd+fa+fgb+8cfgcfgc8cfgcfgco5fc<agfec<afec<aol8o4def4.<a>e64f16.or64o4efga.g.fe4dcd4.da64a+16.or64o4agfg.f.b+a4aa+ol16o4g<gfgafgd>g<gfgafgd>f<agab+ageb+agab+ageb+fa+b+a+f<a+b>b+eg8>f+64g.or64o3cc+d<a>degegadef+g<a>def+>f8.ol8o4e.d4defe.f.gc2a+.a.g4fefe.f.ga4.f16g16g+.g.g+f4.f16g16g+.g.g+f4.ff4.ff.e.fo2gol16o2efgfga+>c+cc+eol8o3fg>g+.g.g+a+.>c+.d+o2c.c.c4or4.o3b+cf.<for16o3co5c64c+16.or64o3c>f<fa+.n34or16o3fa+f>gn34<d+.<d+or16o2a+n39a+n51>d+g+.<gor16o3d+g+d+b+cf.<for16o3co5c64c+16.or64o3c>f<fa+.n34or16o3fa+fn51n34d+.<d+or16o2a+n39a+n51>d+g+d+ol16o3fg+a+g+a+g+a+>cc8<c8f8.<f8oro3c8o5c64c+.or64l8o3c>f<fa+.n34or16o3fa+fn51n34d+.<d+or16o2a+n39a+4>d+g+.<gor16o3d+g+d+n56cf.<d+or16o2a+n39a+n56g+>c+.<cor16o2gb+gn48g+n37g+n48a+n39a+4>cfcol16o3fcd+fa+fgb+8cfgcfgc8cfgcfgc>fcd+fa+fg+b+o2f2
,
ol8v15o5g2g2g2o2a+4g4o5g2g2g2c+4d+4go3cn34cn67cn34cn67cn34cn65cn34cn67cn34cn67cn34cn67c<a+b+g+g+a+a+ccc16c16c16c16cov15o4cg+gd+.f.f4f<f>b+a+.b+.f4fgg+a+4d+4>c+c<a+g+a+.>c.c4cc+d+c+.c.<g+4>cc+d+c+.c.<g+4g+gd+fgg+gfa+>cd+d+f16f2.or16o4f.g.g+a+.g+.g<f1o&o3f.<a.>d2.or16o2e.a2.or16o2f.a+2.or16o3c.f2oro4b+.a+.aa+.a.ga.g.fe4.efgafec<g16e16>ee4.dd2c.o2f.a+4.fa+>b+.<g.b+4.g>c>e.o2e.a4.ea>b+.<a.>d4.<a>d4<g+16n37g+16>c+.c+<g+16n37g+4f16a+f16a+.a+f16a+f4g16b+g16>c.c<g16b+go4g2.fgc.<g.fg.e.c+c.c.c4>cg+gd+.f.f4f<f>b+a+.b+.f4fgg+a+4d+4>c+c<a+g+a+.>c.c4<cg+gd+.f.f4f<f>b+a+.b+.f4fgg+g4.g16g+16a+g+gd+g+.a+.g4cg+gd+.f.f4f<f>b+a+.b+.f4fgg+a+4d+4>c+c<a+g+a+.>c.c4cc+d+c+.c.<g+4>cc+d+c+.c.<g+4g+gd+fgg+gfa+>cd+d+f16f2.or16o4f.g.g+a+.g+.g2oro5f2
,
v15<c2c2c1c2c2c1<c.r16c8c.r16c.r16c8c.r16c.r16c8c.r16c2.&c8.r16g1f.b+8.f.r16a+.>f8.<a+.r16d+.a+8.d+.r16g+.>d+8.<g.r16f.b+8.d+.r16c+.g+8.c.r16c+.r16d+8d+.r16f.r16f8f.r16f2f2o4f1o2d1<a1a+1>f1g2g2a2a2a+r>cr<d2d2<a+2&a+8a+.>c2&c8c.<a2&a8a.>d2&d8d.c+2c+2<a+2a+2>c2c2c2c2c8.c8.c8c8.c8.c8o5c1o2f.b+8.f.r16a+.>f8.<a+.r16d+.a+8.d+.r16g+.>d+8.<g.r16f.b+8.f.r16a+.>f8.<a+.r16d+.a+8.d+.r16g+.r16g8g.r16f.b+8.f.r16a+.>f8.<a+.r16d+.a+8.d+.r16g+.>d+8.<g.r16f.b+8.d+.r16c+.g+8.c.r16c+.r16d+8d+.r16f.r16f2r16f2f1o4f2
;