mml@
l88t160v13l8eeeeeeeeeeeeeeeeeeeeeeeeeeeeeeeeag+ea.r16g+e4ag+ea.r16g+e4ag+ea.r16g+l4ebbag+v15l8ag+ea.r16g+e4ag+ea.r16g+e4ag+ea.r16g+l4ebbbbl8f+f+f+f+g+g+ra4g+4f+4f+o6c+4<c+c+c+c+<bb4b4ba4g+aba>c+c+c+c+<bb4b4b4ag+aba>c+c+c+c+<bb4b4ba4g+aba>c+c+c+c+<bb4bbag+a2&arf+f+f+f+l4f+f+ec+erl8f+f+f+f+f+g+a4ag+4f+4e4rf+f+f+f+l4f+f+ec+ef+8af+8f+2&f+8r2ab>c+<bf+b8>c+<b8b.rr8bael8ab4aa4g+ag+ef+1r2f+4b4>c+4dc+4dc+dc+1v13<a.a2&a16o6c+4v15o4f+f+f+f+g+l4g+ag+f+l8f+ab>c+r<f+>c+r<f+4g+ag+ab>c+<bb4f+f+f+f+g+l4g+ag+f+l8f+ab>c+r<f+>c+r<f+4g+4ag+g+f+2f+2>c+4.c+<b4.bbag+ae2b4.ba1f+4g+4a4bf+4f+g+4aba>c+4dc+4dc+2c+<babaef+f+f+f+f+af+4.v13f+f+f+f+ef+4.v15f+f+f+f+af+4.v13a4f+a4f+4.v15f+f+f+f+af+4.v13f+f+f+f+ef+4.v15f+f+f+f+ab4.a4f+a4b4.>c+1
,
v15rr.o2f+f+f+f+f+f+f+f+ddddeeeef+f+f+f+f+f+f+f+ddddeeeer1r2.l8rdddde4ec+c+4c+4f+4e4dddde4ec+c+4c+c+l1.rrrr8l4ddddeeeef+f+f+f+eeeeddddeeeef+f+f+f+f+r8o4ef+af+c+f+8af+8f+.r.f+ec-e8f+e8el8d+ed+<ba1l4o1bbbb>c+c+c+c+c+c+c+c+eeeeddeec+c+f+eddeec+c+f+f+l8ddddeeeec+c+c+c+f+f+eeddddeeeec+c+c+c+f+f+f+f+l4ddddeeeec+c+c+c+f+f+f+edddd<bbbb>c+c+c+c+r1ddeef+f+f+f+8e8ddeef+f+f+f+8e8ddeef+f+f+f+8e8ddeef+f+f+f+f+1
,
r2v15o2f+f+f+f+f+f+f+f+ddddeeeef+f+f+f+f+f+f+f+ddddeeeeddeec+c+f+f+r1.r1.r2f+f+l8dddde4ec+4c+4c+f+4e4ddddl4eec+c+f+f+ddddeeeef+f+f+f+eeeeddddeeeef+f+f+f+f+f+f+f+ddddeeeec+c+c+c+f+f+f+f+ddddr1.r1.r1
;