mml@
l32<v6a&a&a&a&a&a&a&a&a&a&a&a&a&a&a&a&a&a&a&a&a&a&a&a&a&a&a&a&a&a&a&ar4v7l8dan49a>d<ac+ac-f+n49a>edc+<f+<eb>ef+g>f+ed<<a>egv9b>d<b<a4v7>dan49a>d<an54an30en49a>e4<f+a<g>dgab>dg4<<av9>eav11>d4<ev13a4v9c-f+n49f+>en42d<f+n30eben49ba4<g>dagb4g+4<a>ea>dv11c+v9ev7a4<<f+>da>ed2<<ev9b>ef+16v11g16b2r4v9gf+e4v11<a4da>dc+v13<bav11g4v7d2&d.r4r16v9>gb>da<gb>dg<gb>df+<gb>de<da>dg<da>df+<da>c+e<dabn54cgb>e<cgb>d<<a>eav7>d<<a>ea>c+<<dv9a>df+<ev11>dgb<f>g+>d<be4<d4g>dgab>dg4v9<<g+>f+b>d<f4r4v11n30eab>c+v9et80aegt76f+d+<bv11t70af+d+<bv9t76e4>b4v11e2v9<av11>f+v9av7>d<g4v9>e4rv7<<g>dgagl4d2.v11n49bv13a1,
t86r1l8rv11av13>d4e.r16v15f+4v13a.v11f+2.r4r16v13ef+d4.rc-v15d4v13e2r4<a>d4e.l16rv11f+4r64a8>c+4.r2r.r64v13<a32a32ar64v15>c+rd8<b4r.r64v13l8abv11a2.r4v13av15>d4.dc+.r16<bb4a2rf+ab4.a32b16.agdf+.r16e2r4v11c+d4v13e4f+.r16v15gv13a2r4g32a16.v11gdf+2r4e16.r32e4v9d2.&dr2v15d.f+v13ar16v11>c+4.v13<bb2r2b.>c+v15d.<b4.av13a2r2v11f+.v13f+g.a4.g16f+16v11g2r2v13g.ab.b4.aa2r4.dd.f+v15a.l4.>c+d4<b2rv13b8.>c+8d8.v15c+rc+4v11<b4v7b4rv13l8ag32a16.g>d<gg4rd16e16f+4.v11f+rev13dc+v11e2.r4r64d2,
r1r1.v9o6e16d16c+dr8<<br2.r8b2r8v11<gr1rv9l16o6edc+4d8v7e8r8r64v11<gra8r1r.r64v13l4c-.v15c+v13f+.l8f+f+.r16f+f+4e2rc+dl4.dr<b8b8.r16av7l2n31r1.v11dr4v9l8bag4v11g16.r32g4v9f+4.v13gv11f+v13e4v9f+2l1.rrrrv11l8>e.f+g.f+4.rl2drl4<<gdv13>>f+.f+f+2r.v11<edv13>a.a.r1.v9<av11gf+r2v9c+r<ar1rv11>agv13f+2.
;