mml@
t138l1rv12o1d+fa+>d+2d2c<fg>dl8<g>g<g>g16<gg16>g<g>g<f>f<fl16>f<f8>ff8<f>fl8f<d+>d+<d+>d+16<d+d+16>d+<d+>d+<cb+cb+16dd16>d<d>d<g>g<g>g16<gg16>g<g>g<f>f<fl16>f<f8>ff8<f>fl8f<d+>d+<d+>d+16<d+d+16>d+<d+>d+<cb+cb+16dd16>d<d>dr2<g>g<gl16>gg<g8>g8<g8>gg<f8>f8<f8>ff<f8>f8<f8>ff<d+8>d+8<d+8>d+d+<d+8>d+8<d+8>d+d+<f8>f8<f8>ff<f8>f8<f8>ff<g8>g8<g8>gg<g8>g8<g8>gg<f8>f8<f8>ff<f8>f8<f8>ff<c8b+8c8>cc<d8>d8<d8>dd<g8>g8<g8>gg<g8>g8<f8>ff<d+8d+rd+8d+8d+8d+rd+8d+d+f8frf8fff8frf8ffd+8d+rd+8d+d+f8frf8ffg8grg8gf8ffrf8ffd+8d+rd+8d+8d+8d+rd+8d+d+f8frf8fff8frf8ffc8crc8ccc8crc8ccd8drd8ddd8r8ddddd+8>d+8<d+8>d+d+<d+8>d+8<d+8>d+d+<f8>f8<f8>ff<f8>f8<f8>ff<a+8>a+8<a+8>a+a+<a+8>a+8<a+8>a+a+<d+8>d+8<d+8>d+d+<d8>d8<c8>cc<c8b+8c8>cc<c8b+8c8>cc<f8>f8<f8>ff<f8>f8<f8>ff<g8>g8<g8>gg<g8>g8<g8>gg<d8>d8<d8>dd<d8>d8<d8>ddl1d+f<a+>d+2d2v10c<f2.&f8v6a&a&a8
,
r1v10l16<ga+>dga+>dga+>d+<a+gd<a+gd<a+a>cfa>cfa>cfc<afc<afc<a>cfa>cfa>cfc<afc<afc<ga+>dga+>dga+>d+<a+gd<a+gd<a+ga+>dga+>dga+>d+<a+gd<a+gd<a+a>cfa>cfa>cfc<afc<afc<ga+>dga+>dga+>d<a+gd<a+gd<a+r4v15d<a>dgda>dada>cfv14<d4<a+8.>dr<a+l8ga+gag>cd16<gl16gag>cdd8d4<a+8.>dr<ag8a+8g8g4a+4>c4d8ddd4<a+8.>dr<a+l8ga+gag>cd16<gl16gag>cdd8d4<a+8.>dr<ag8a+8g8g4a+4>c4d8ddr2l1<a+agaa+aa2a+2r4l16>grdrgr8grfgr4rl8>gf4d+gf4.fdfa4.g4a+4afag2&gr2.gf4d+gf4.fdfa4.g4d+4d+g4f+2&f+r<a+afg.l16ra8.ra+8>f4c4.r8c8drcr<a+rarl8f.r16g.r16af.r16a+2&a+ra+aa+2&a+ra+a>c2&cl4<f>cc<a+8aa+>d2&d8r2l16ro3ar4.v9ga+>dga+>dga+>d+<a+gd<a+gd<a+a>cfa>cfa>cfc<afc<afc<a>cfa>cfa>cfc<afc<afc<ga+>dga+>dga+>d+<a+gd<a+gd<a+v10ga+>dga+>dga+>d+<a+gd<a+gd<a+a>cfa>cfa>cfc<afc<afcv6o2df+a+>df+a+>df+v4<df+a+>df+a+>df+v2o3da+>g>d<g>da+>f+
,
r2l8rv15>a+afg.r16a.r16a+>f.r16c4.rcdc<a+al8.fr16gr16a8fr16l4a+.r.g8f8d+2rg8f8a.rcadd8dgf+.r2.l8.gr<g16rg16rg16ra16ra16ra16ra16rg16rg16rg16rg16rd+16rd+16rf16rf16rg16rg16rg16rg16ra16ra16ra16ra16rl16gr8.gr8.gr8.gl8r.d+16r.d+16r.f16r.f16r.>dd+da+4r4.ga+a4.raa+afd+4.fgr>d4<a4.r4.dd+da+4r4.a+aa4.ragfa4a+.r16b+a+.r16afl4gr.o3gfr1.r1.o5d2.rg1r1d+2g2f+2&f+8r.a+2g2ar>cg8f2d.<f8r.<crl8<a>d+2&d+rd+df2&f<a4>f4d4dd4d4c2&cr>a+afg.r16a.r16a+>f.r16c4.rcdc<a+af.r16g.r16af.r16a+4.r4.gfd+2v10r4gfa4.r4c4av6a+1&a+r1
;