MML@t188
l8>ed<a>e4d<a>e4d<a>e4d<acc-4dl4gf+d1&d8c-d8gf+ag8f+8d+2&d+8c-d8gf+d1&d8c-d8gf+d+32e32d+16l8d+ed+ed+ed+ed+ed+ed+2r2ref+gf+g4f+2f+16f+16gf+gg4f+4c-4cc-cc-2r2ref+gf+g4f+2f+16f+16gf+gb4e4e4f+f+gf+2e<aba16b.bba>dde<b4b16b16ba>dde<b4b16b16b+brb>g4f+d4re<aba16b.bba>dde<b4b16b16ba>dde<b4b16b16b+brb>g4f+d4r4eel16eee8eel8gereel16eee8eel8bareel16eee8eel8gee4eg4f+edreel16eee8eel8gereel16eee8eel8bareel16eee8eel8geb4b>d4<bagb4el4edl16ddb8e4e4f+4f+f+l8f+gf+gf+<b4b16b16bl4>def+e8ge8edl8daaa.a16agb4age2reb4b>d4<bagb4el4edl16ddb8e4e4f+4f+f+l8f+gf+gf+<bb4bl4>def+e8ge8edl8daaa.a16agb4>d4.c4.<bbb+l4bgee8e8aabl8bb+agl4.ar4>dcl8<bb4b+bbge4eeaaa2a16b16b+agl4a.rb+a8aga1&a8b+a8aga1l8&a>d+d+d+fffggaaaa+a+a+>ccl4d.c.d+d2.&d8<<e8be8edl16ddb8e4e4f+4f+f+l8f+gf+gf+<bb4rl4>>def+<e8ge8edl8daaa.a16agb4age2r4b4b>d4<bagb4el4edl16ddb8e4e4f+4f+f+l8f+gf+gf+<b4b16b16bl4>def+e8ge8edl8daaa.a16agb4age2rebbb>d4<bagb4el4edl16ddb8e4e4f+4f+f+l8f+gf+gf+<bb4bl4>def+e8ge8edl8daaa.a16agl4bc-d8gf+d1&d8c-d8gf+ag8f+8d+2&d+8r32c-d8gf+d1&d8c-d8gf+d+l8ed+ed+ed+ed+ed+ed+2>e2.&e,
r1r1l8o2ererererdrdrdrdrcrcrcrcr<brbrbrbr>ererererdrdrdrdrcrcrcrcr<brbrbrbrbrbrbrbrl4>ee.r1r1r1r.ee.r1r1l8cccc4c4.ccce4e4.eeed4d4.dddc4c4.cccc4c4.ccce4e4.eeed4d4.dddc4c4.cccc4c4.ccceer2.eer2.eer2.cc4d4dddeer2.eer2.eer2.cc4d4dddcg>cec<gcgda>df+d<adaeb>ege<bebaa4b4b4bcg>cec<gcgda>df+d<adaeb>ege<bebee4<b4bbb>cg>cec<gcgda>df+d<adaeb>ege<bebaa4b4b4bcg>cec<gcgda>df+d<adaf>cfafc<fb+g>dgbgd<g>d<a>eab+ae<a>e<a>eab+ae<a>e<f>cfafc<fb+g>dgbgd<g>d<a>eab+ae<a>e<a>eab+ae<a>e<f>cfafc<fb+f>cfafc<fb+da>df+d<adada>df+d<adad+d+d+d+d+d+d+d+ffffffff>ddddddddddddl1.rrrrrl8<ee4<b4bbb>cg>cec<gcgda>df+d<adaeb>ege<bebaa4b4b4bcg>cec<gcgda>df+d<adaeb>ege<bebee4<b4bbb>cg>cec<gcgda>df+d<adaeb>ege<bebaa4b4b4bcg>cec<gcgda>df+d<adaeeeeeeeeddddddddcccccccc<bbbbbbbbr32>eeeeeeeeddddddddcccccccc<bbbbbbbbbbbbbbbb>e1,
l1rrrl8>ed<a>e4d<ar1r1r1r>ed<a>e4d<al1.rrrrrrrr2r8e2r1r1re2rrrrrrrrrrrrrrrrrrrrrrrrrrrrrrrrrrrrrrrrrrrl8>ed<a>e4d<a4r1r1r1r32>ed<a>e4d<a4l1rrre2.&e8;